!!!COM: Music21
!!!OTL: O Verdegaio
!!!OMV: pezas_rumbas_o-verdegaio_o-verdegaio-partitura.musicxml
**kern
*I"Bagpipes
*I'Bag
*clefG^2
*k[]
*M4/4
=1
!LO:TX:a:t=Andante
*MM96
!LO:TX:a:t=[quarter]=96
2.r
8r
8ee
=||
8.ggL
16ggK
8gg
16ffL
16eeJJ
8dd
4b
8gg
=
8.ggL
16ggK
8gg
16ggL
16ffJJ
8ee
4cc
8ee
=
8.ggL
16ggK
8gg
16ffL
16eeJJ
8dd
4b
8gg
!!linebreak:original
=
8.ggL
16ggK
8gg
16ggL
16ffJJ
8eeL
8ccJ
16eeLL
16ee
16ee
16eeJJ
=||
8.eeL
16ggK
8ff
8eeJ
4dd
16ffLL
16ff
16ff
16ffJJ
=
8ggL
16ggL
16ffJ
8ee
8ddJ
4cc
16eeLL
16ee
16ee
16eeJJ
=
8.eeL
16ggK
8ff
8eeJ
4dd
16ffLL
16ff
16ff
16ffJJ
!!linebreak:original
=
8ggL
16ggL
16ffJ
8ee
8ddJ
4.cc
8ee
=||
8ccL
8ee
8cc
8eeJ
8ff
4dd
8dd
=
8bL
8dd
8b
8ddJ
8ee
4cc
8ee
=
8ccL
8ee
8cc
8eeJ
8ff
4dd
8dd
=
8bL
8dd
8b
8ddJ
8ee
[4.cc
!!linebreak:original
=
8ccL]
8cc
8dd
8eeJ
8.ffL
16ffK
8aa
8aaJ
=||
8ffL
8ee
8dd
8ccJ
4ee
8.ggL
16ggJk
=
8eeL
8dd
8dd
8ccJ
8.ddL
16ddK
8ff
8ffJ
=
8eeL
8dd
8cc
8bJ
[2cc
=
8ccL]
8cc
8dd
8eeJ
8.ffL
16ffK
8aa
8aaJ
!!linebreak:original
=||
8ffL
8ee
8dd
8ccJ
4ee
8.ggL
16ggJk
=
8eeL
8dd
8dd
8ccJ
8.ddL
16ddK
8ff
8ffJ
!!linebreak:original
=
8eeL
8dd
8cc
8bJ
4.cc
8ee
=||
8ccL
8ee
8cc
8eeJ
8ff
4dd
8dd
=
8bL
8dd
8b
8ddJ
8ee
4cc
8ee
=
8ccL
8ee
8cc
8eeJ
8ff
4dd
8dd
=||
8bL
8dd
8b
8ddJ
8ee
4cc
8ee
!!linebreak:original
=||
8bL
8dd
8b
8ddJ
8ee
4cc
8gg
=
8ccc
8r
2.r
==
*-
